icons/svg/arrow-upload.svg

<svg width="24" height="24" viewBox="0 0 24 24" fill="none" xmlns="http://www.w3.org/2000/svg">
<path d="M12 16.3488L12 4.1841V3.87134M6.11768 9.13237L10.9394 4.31068C11.2323 4.01778 11.6161 3.87134 12 3.87134M17.8824 9.13237L13.0607 4.31068C12.7678 4.01778 12.3839 3.87134 12 3.87134" stroke="currentColor" stroke-width="1.5" stroke-linecap="round" stroke-linejoin="round"/>
<path d="M20.75 16.5147L20.75 17.45C20.75 19.2725 19.2725 20.75 17.45 20.75L6.55 20.75C4.72746 20.75 3.25 19.2725 3.25 17.45L3.25 16.5147" stroke="currentColor" stroke-width="1.5" stroke-linecap="round" stroke-linejoin="round"/>
</svg>

<svg xmlns="http://www.w3.org/2000/svg" width="24" height="24" fill="none" viewBox="0 0 24 24"><path stroke="currentColor" stroke-linecap="round" stroke-linejoin="round" stroke-width="1.5" d="M12 16.349V3.87M6.118 9.132l4.821-4.821c.293-.293.677-.44 1.061-.44m5.882 5.261-4.821-4.821A1.5 1.5 0 0 0 12 3.87m8.75 12.645v.935a3.3 3.3 0 0 1-3.3 3.3H6.55a3.3 3.3 0 0 1-3.3-3.3v-.935"/></svg>
